X: 8597
T: Cronin's
R: reel
M: 4/4
K: Gmajor
|:~G3 A Bd ~d2|~g3 b ag ~g2|eg ~g2 dg ~g2|egdG BA ~A2|
~G3 A Bd ~d2|~g3 b ag ~g2|eg ~g2 dg ~g2|~b3 g ag ~g2:|
|:~d3 e dB ~B2|~c3 A BG ~G2|eg ~g2 dg ~g2|~e3 G BA ~A2|
~d3 e dB ~B2|cA ~A2 ~B3 d|eg ~g2 dg ~g2|~b3 g ag ~g2:|

